;FLAVOR:Marlin
;TIME:4957
;Filament used: 4.57302m
;Layer height: 0.2
;MINX:68.2
;MINY:68.317
;MINZ:0.24
;MAXX:151.799
;MAXY:151.682
;MAXZ:5.99
;Generated with Cura_SteamEngine 4.8.0
M140 S70
M105
M190 S70
M104 S200
M105
M109 S200
M82 ;absolute extrusion mode
M201 X500.00 Y500.00 Z100.00 E5000.00 ;Setup machine max acceleration
M203 X500.00 Y500.00 Z10.00 E50.00 ;Setup machine max feedrate
M204 P500.00 R1000.00 T500.00 ;Setup Print/Retract/Travel acceleration
M205 X8.00 Y8.00 Z0.40 E5.00 ;Setup Jerk
M220 S100 ;Reset Feedrate
M221 S100 ;Reset Flowrate

G28 ;Home
G29 ;Auto level bed

G92 E0 ;Reset Extruder
G1 Z2.0 F3000 ;Move Z Axis up
G1 X10.1 Y20 Z0.28 F5000.0 ;Move to start position
G1 X10.1 Y200.0 Z0.28 F1500.0 E15 ;Draw the first line
G1 X10.4 Y200.0 Z0.28 F5000.0 ;Move to side a little
G1 X10.4 Y20 Z0.28 F1500.0 E30 ;Draw the second line
G92 E0 ;Reset Extruder
G1 Z2.0 F3000 ;Move Z Axis up
G92 E0
G92 E0
G1 F2700 E-5
;LAYER_COUNT:22
;LAYER:-6
M107
G0 F12000 X81.55 Y79.656 Z0.24
;TYPE:SUPPORT-INTERFACE
G1 F2700 E0
G1 F1800 X81.655 Y79.553 E0.01174
G1 X81.991 Y79.244 E0.04818
G1 X82.484 Y78.802 E0.10103
G1 X82.692 Y78.619 E0.12315
G1 X82.787 Y78.539 E0.13306
G1 X83.35 Y78.086 E0.19074
G1 X83.497 Y77.979 E0.20526
G1 X84.047 Y77.612 E0.25804
G1 X84.23 Y77.502 E0.27508
G1 X84.802 Y77.191 E0.32705
G1 X84.965 Y77.111 E0.34155
G1 X85.548 Y76.782 E0.39498
G1 X86.091 Y76.376 E0.44911
G1 X86.427 Y76.065 E0.48565
G1 X86.821 Y75.666 E0.53041
G1 X87.001 Y75.5 E0.54996
G1 X87.466 Y75.108 E0.59851
G1 X87.669 Y74.953 E0.61889
G1 X88.485 Y74.4 E0.69758
G1 X88.567 Y74.348 E0.70533
G1 X89.008 Y74.086 E0.74628
G1 X89.608 Y73.742 E0.80149
G1 X89.979 Y73.539 E0.83524
G1 X90.592 Y73.234 E0.8899
G1 X90.796 Y73.143 E0.90773
G1 X91.38 Y72.914 E0.9578
G1 X91.587 Y72.844 E0.97525
G1 X92.221 Y72.658 E1.02799
G1 X92.322 Y72.634 E1.03627
G1 X92.963 Y72.435 E1.08985
G1 X93.58 Y72.153 E1.144
G1 X93.972 Y71.922 E1.18032
G1 X94.539 Y71.553 E1.23432
G1 X94.708 Y71.453 E1.25
G1 X95.25 Y71.166 E1.29895
G1 X95.486 Y71.056 E1.31974
G1 X96.335 Y70.712 E1.39286
G1 X96.488 Y70.656 E1.40587
G1 X96.866 Y70.528 E1.43772
G1 X97.51 Y70.319 E1.49177
G1 X97.941 Y70.187 E1.52775
G1 X98.647 Y70.003 E1.58599
G1 X98.857 Y69.959 E1.60312
G1 X99.494 Y69.852 E1.65468
G1 X99.677 Y69.83 E1.66939
G1 X100.348 Y69.778 E1.72311
G1 X100.508 Y69.772 E1.73589
G1 X101.175 Y69.708 E1.78938
G1 X101.837 Y69.557 E1.84358
G1 X102.249 Y69.417 E1.87832
G1 X102.831 Y69.192 E1.92813
G1 X103.03 Y69.125 E1.94489
G1 X103.639 Y68.951 E1.99544
G1 X103.88 Y68.895 E2.01519
G1 X104.822 Y68.727 E2.09158
G1 X104.91 Y68.714 E2.09868
G1 X105.481 Y68.648 E2.14456
G1 X106.105 Y68.584 E2.19463
G1 X106.393 Y68.558 E2.21771
G1 X106.499 Y68.551 E2.22619
G1 X107.223 Y68.518 E2.28405
G1 X107.412 Y68.518 E2.29913
G1 X108.08 Y68.547 E2.35251
G1 X108.268 Y68.563 E2.36757
G1 X108.918 Y68.651 E2.41993
G1 X109.059 Y68.676 E2.43136
G1 X109.724 Y68.752 E2.48479
G1 X110.402 Y68.745 E2.53891
G1 X110.827 Y68.695 E2.57307
G1 X111.508 Y68.589 E2.62808
G1 X111.745 Y68.563 E2.64712
G1 X112.364 Y68.523 E2.69663
G1 X112.588 Y68.519 E2.71451
G1 X113.519 Y68.552 E2.78888
G1 X113.598 Y68.557 E2.7952
G1 X114.139 Y68.608 E2.83857
G1 X114.812 Y68.679 E2.89259
G1 X115.109 Y68.715 E2.91647
G1 X115.909 Y68.847 E2.9812
G1 X116.13 Y68.894 E2.99923
G1 X116.74 Y69.053 E3.04955
G1 X116.935 Y69.113 E3.06584
G1 X117.544 Y69.331 E3.11747
G1 X117.663 Y69.38 E3.12774
G1 X118.298 Y69.595 E3.18126
G1 X118.964 Y69.729 E3.23549
G1 X119.42 Y69.772 E3.27205
G1 X120.052 Y69.804 E3.32256
G1 X120.278 Y69.826 E3.34069
G1 X120.888 Y69.913 E3.38987
G1 X121.154 Y69.964 E3.41149
G1 X122.039 Y70.183 E3.48427
G1 X122.174 Y70.221 E3.49546
G1 X122.64 Y70.367 E3.53445
G1 X123.279 Y70.576 E3.58811
G1 X123.567 Y70.675 E3.61242
G1 X123.674 Y70.714 E3.62151
G1 X124.32 Y70.967 E3.67689
G1 X124.499 Y71.046 E3.69251
G1 X125.095 Y71.342 E3.74563
G1 X125.274 Y71.441 E3.76196
G1 X125.822 Y71.779 E3.81335
G1 X125.958 Y71.871 E3.82646
G1 X126.535 Y72.211 E3.87992
G1 X127.158 Y72.48 E3.93409
G1 X127.576 Y72.61 E3.96903
G1 X128.193 Y72.775 E4.02002
G1 X128.411 Y72.844 E4.03827
G1 X129.005 Y73.061 E4.08875
G1 X129.214 Y73.15 E4.10688
G1 X130.017 Y73.539 E4.17811
G1 X130.154 Y73.61 E4.19042
G1 X130.619 Y73.87 E4.23295
G1 X131.185 Y74.2 E4.28525
G1 X131.426 Y74.343 E4.30762
G1 X131.533 Y74.41 E4.3177
G1 X132.12 Y74.797 E4.37382
G1 X132.289 Y74.918 E4.39041
G1 X132.788 Y75.315 E4.44131
G1 X132.959 Y75.464 E4.45942
G1 X133.432 Y75.915 E4.51159
G1 X133.539 Y76.026 E4.52389
G1 X134.033 Y76.477 E4.57729
G1 X134.587 Y76.869 E4.63146
G1 X134.966 Y77.081 E4.66613
G1 X135.541 Y77.373 E4.7176
G1 X135.741 Y77.487 E4.73598
G1 X136.254 Y77.807 E4.78424
G1 X136.457 Y77.949 E4.80402
G1 X137.17 Y78.503 E4.8761
G1 X137.289 Y78.601 E4.8884
G1 X137.686 Y78.95 E4.9306
G1 X138.172 Y79.393 E4.98309
G1 X138.454 Y79.657 E5.01392
G1 X138.975 Y80.185 E5.07314
G1 X139.103 Y80.327 E5.0884
G1 X139.52 Y80.835 E5.14086
G1 X139.635 Y80.987 E5.15607
G1 X140.011 Y81.537 E5.20926
G1 X140.078 Y81.647 E5.21954
G1 X140.465 Y82.194 E5.27302
G1 X140.925 Y82.693 E5.3272
G1 X141.268 Y82.996 E5.36373
G1 X141.771 Y83.401 E5.41528
G1 X141.909 Y83.523 E5.42998
G1 X142.371 Y83.969 E5.48124
G1 X142.546 Y84.157 E5.50175
G1 X143.134 Y84.856 E5.57466
G1 X143.217 Y84.96 E5.58528
G1 X143.521 Y85.366 E5.62577
G1 X143.924 Y85.925 E5.68078
G1 X144.091 Y86.163 E5.70398
G1 X144.15 Y86.251 E5.71244
G1 X144.525 Y86.836 E5.76791
G1 X144.653 Y87.058 E5.78837
G1 X144.933 Y87.599 E5.83699
G1 X145.022 Y87.79 E5.85381
G1 X145.264 Y88.376 E5.90442
G1 X145.316 Y88.521 E5.91672
G1 X145.582 Y89.136 E5.9702
G1 X145.926 Y89.721 E6.02438
G1 X146.199 Y90.087 E6.06082
G1 X146.606 Y90.587 E6.11229
G1 X146.737 Y90.763 E6.1298
G1 X147.091 Y91.29 E6.18048
G1 X147.195 Y91.463 E6.19659
G1 X147.637 Y92.289 E6.27137
G1 X147.681 Y92.376 E6.27916
G1 X147.923 Y92.9 E6.32523
G1 X148.185 Y93.494 E6.37705
G1 X148.297 Y93.755 E6.39972
G1 X148.335 Y93.849 E6.40782
G1 X148.587 Y94.516 E6.46473
G1 X148.659 Y94.74 E6.48351
G1 X148.825 Y95.337 E6.53298
G1 X148.875 Y95.553 E6.55068
G1 X148.995 Y96.214 E6.6043
G1 X149.015 Y96.354 E6.61559
G1 X149.148 Y97.01 E6.66902
G1 X149.366 Y97.654 E6.72329
G1 X149.564 Y98.078 E6.76065
G1 X149.811 Y98.553 E6.80338
G1 X149.907 Y98.76 E6.8216
G1 X150.137 Y99.323 E6.87014
G1 X150.221 Y99.56 E6.89022
G1 X150.497 Y100.508 E6.96903
G1 X150.536 Y100.656 E6.98125
G1 X150.635 Y101.096 E7.01725
G1 X150.775 Y101.755 E7.07103
G1 X150.847 Y102.12 E7.10072
G1 X150.968 Y102.933 E7.16634
G1 X150.988 Y103.122 E7.18151
G1 X151.026 Y103.764 E7.23284
G1 X151.028 Y103.971 E7.24937
G1 X151.007 Y104.64 E7.3028
G1 X151 Y104.736 E7.31048
G1 X150.992 Y105.405 E7.36389
G1 X151.069 Y106.08 E7.41812
G1 X151.17 Y106.53 E7.45493
G1 X151.344 Y107.176 E7.50834
G1 X151.381 Y107.343 E7.52199
G1 X151.489 Y107.959 E7.57191
G1 X151.521 Y108.216 E7.59259
G1 X151.585 Y109.111 E7.66421
G1 X151.593 Y109.277 E7.67748
G1 X151.599 Y109.783 E7.71787
G1 X151.597 Y110.45 E7.77111
G1 X151.593 Y110.751 E7.79514
G1 X151.59 Y110.853 E7.80329
G1 X151.548 Y111.548 E7.85887
G1 X151.526 Y111.758 E7.87572
G1 X151.431 Y112.399 E7.92745
G1 X151.387 Y112.622 E7.94559
G1 X151.237 Y113.244 E7.99667
G1 X151.193 Y113.399 E8.00953
G1 X151.049 Y114.053 E8.06299
G1 X150.988 Y114.728 E8.11709
G1 X150.992 Y115.141 E8.15006
G1 X151.028 Y115.839 E8.20585
G1 X151.029 Y116.042 E8.22205
G1 X151.002 Y116.707 E8.27518
G1 X150.984 Y116.904 E8.29097
G1 X150.858 Y117.806 E8.36367
G1 X150.839 Y117.919 E8.37282
G1 X150.736 Y118.432 E8.41458
G1 X150.586 Y119.13 E8.47157
G1 X150.516 Y119.427 E8.49593
G1 X150.493 Y119.518 E8.50342
G1 X150.298 Y120.214 E8.56112
G1 X150.24 Y120.393 E8.57614
G1 X150.004 Y121.014 E8.62917
G1 X149.933 Y121.181 E8.64366
G1 X149.628 Y121.81 E8.69946
G1 X149.601 Y121.86 E8.70399
G1 X149.319 Y122.467 E8.75742
G1 X149.114 Y123.115 E8.81167
G1 X149.016 Y123.612 E8.85211
G1 X148.94 Y124.121 E8.89319
G1 X148.896 Y124.344 E8.91133
G1 X148.75 Y124.95 E8.96109
G1 X148.679 Y125.187 E8.98084
G1 X148.343 Y126.129 E9.06068
G1 X148.289 Y126.265 E9.07236
G1 X148.094 Y126.715 E9.1115
G1 X147.824 Y127.319 E9.16432
G1 X147.661 Y127.669 E9.19514
G1 X147.318 Y128.331 E9.25465
G1 X147.22 Y128.501 E9.27031
G1 X146.875 Y129.043 E9.3216
G1 X146.747 Y129.225 E9.33936
G1 X146.35 Y129.74 E9.39127
G1 X146.254 Y129.853 E9.4031
G1 X145.856 Y130.391 E9.45652
G1 X145.523 Y130.982 E9.51067
G1 X145.347 Y131.389 E9.54607
G1 X145.115 Y131.997 E9.59802
G1 X145.033 Y132.187 E9.61453
G1 X144.76 Y132.745 E9.66412
G1 X144.643 Y132.959 E9.68359
G1 X144.156 Y133.741 E9.75713
G1 X144.088 Y133.844 E9.76698
G1 X143.762 Y134.305 E9.81205
G1 X143.239 Y135.014 E9.88238
G1 X143.166 Y135.108 E9.89188
G1 X142.724 Y135.65 E9.94771
G1 X142.57 Y135.823 E9.96619
G1 X142.139 Y136.265 E10.01547
G1 X141.984 Y136.411 E10.03247
G1 X141.497 Y136.829 E10.0837
G1 X141.316 Y136.971 E10.10207
G1 X140.816 Y137.417 E10.15555
G1 X140.371 Y137.928 E10.20964
G1 X140.129 Y138.272 E10.24321
G1 X139.777 Y138.815 E10.29487
G1 X139.662 Y138.975 E10.3106
G1 X139.268 Y139.478 E10.3616
G1 X139.11 Y139.659 E10.38078
G1 X138.45 Y140.344 E10.45671
G1 X138.345 Y140.447 E10.46845
G1 X138.009 Y140.756 E10.50489
G1 X137.516 Y141.198 E10.55774
G1 X137.308 Y141.381 E10.57986
G1 X137.213 Y141.461 E10.58977
G1 X136.65 Y141.914 E10.64745
G1 X136.503 Y142.021 E10.66197
G1 X135.953 Y142.388 E10.71475
G1 X135.77 Y142.498 E10.73179
G1 X135.198 Y142.809 E10.78376
G1 X135.035 Y142.889 E10.79826
G1 X134.452 Y143.218 E10.85169
G1 X133.909 Y143.624 E10.90581
G1 X133.573 Y143.935 E10.94236
G1 X133.179 Y144.334 E10.98712
G1 X132.999 Y144.5 E11.00667
G1 X132.534 Y144.892 E11.05522
G1 X132.331 Y145.047 E11.0756
G1 X131.515 Y145.6 E11.15429
G1 X131.433 Y145.652 E11.16204
G1 X130.992 Y145.914 E11.20299
G1 X130.392 Y146.258 E11.25819
G1 X130.021 Y146.461 E11.29195
G1 X129.408 Y146.766 E11.34661
G1 X129.204 Y146.857 E11.36444
G1 X128.62 Y147.086 E11.41451
G1 X128.413 Y147.156 E11.43195
G1 X127.779 Y147.342 E11.4847
G1 X127.678 Y147.366 E11.49298
G1 X127.037 Y147.565 E11.54656
G1 X126.42 Y147.847 E11.60071
G1 X126.028 Y148.078 E11.63703
G1 X125.461 Y148.447 E11.69103
G1 X125.292 Y148.547 E11.70671
G1 X124.75 Y148.834 E11.75566
G1 X124.514 Y148.944 E11.77645
G1 X123.659 Y149.291 E11.8501
G1 X123.531 Y149.338 E11.86099
G1 X123.164 Y149.462 E11.89191
G1 X122.491 Y149.681 E11.9484
G1 X122.059 Y149.813 E11.98446
G1 X121.353 Y149.997 E12.0427
G1 X121.143 Y150.041 E12.05983
G1 X120.506 Y150.148 E12.11139
G1 X120.323 Y150.17 E12.1261
G1 X119.652 Y150.222 E12.17982
G1 X119.492 Y150.228 E12.19261
G1 X118.825 Y150.292 E12.24609
G1 X118.163 Y150.443 E12.30029
G1 X117.751 Y150.583 E12.33503
G1 X117.169 Y150.808 E12.38484
G1 X116.97 Y150.875 E12.4016
G1 X116.361 Y151.049 E12.45216
G1 X116.12 Y151.105 E12.47191
G1 X115.178 Y151.273 E12.54829
G1 X115.09 Y151.286 E12.55539
G1 X114.519 Y151.352 E12.60127
G1 X113.895 Y151.416 E12.65134
G1 X113.607 Y151.442 E12.67443
G1 X113.501 Y151.449 E12.68291
G1 X112.777 Y151.482 E12.74076
G1 X112.588 Y151.482 E12.75585
G1 X111.92 Y151.453 E12.80922
G1 X111.732 Y151.437 E12.82428
G1 X111.082 Y151.349 E12.87664
G1 X110.941 Y151.324 E12.88807
G1 X110.276 Y151.248 E12.9415
G1 X109.598 Y151.255 E12.99562
G1 X109.173 Y151.305 E13.02978
G1 X108.492 Y151.411 E13.0848
G1 X108.255 Y151.437 E13.10383
G1 X107.636 Y151.477 E13.15334
G1 X107.412 Y151.481 E13.17123
G1 X106.481 Y151.448 E13.24559
G1 X106.402 Y151.443 E13.25191
G1 X105.861 Y151.392 E13.29528
G1 X105.188 Y151.321 E13.3493
G1 X104.891 Y151.285 E13.37319
G1 X104.091 Y151.153 E13.43791
G1 X103.87 Y151.106 E13.45594
G1 X103.26 Y150.947 E13.50626
G1 X103.065 Y150.887 E13.52255
G1 X102.456 Y150.669 E13.57418
G1 X102.337 Y150.62 E13.58446
G1 X101.702 Y150.405 E13.63797
G1 X101.036 Y150.271 E13.6922
G1 X100.58 Y150.228 E13.72876
G1 X99.948 Y150.196 E13.77927
G1 X99.722 Y150.174 E13.7974
G1 X99.09 Y150.085 E13.84835
G1 X98.867 Y150.041 E13.86649
G1 X97.984 Y149.821 E13.93913
G1 X97.807 Y149.772 E13.95379
G1 X97.334 Y149.624 E13.99335
G1 X96.714 Y149.422 E14.0454
G1 X96.451 Y149.331 E14.06762
G1 X96.331 Y149.287 E14.07782
G1 X95.669 Y149.028 E14.13457
G1 X95.499 Y148.953 E14.1494
G1 X94.901 Y148.657 E14.20266
G1 X94.729 Y148.561 E14.21838
G1 X94.175 Y148.219 E14.27036
G1 X94.047 Y148.132 E14.28271
G1 X93.471 Y147.792 E14.3361
G1 X92.849 Y147.523 E14.3902
G1 X92.425 Y147.39 E14.42567
G1 X91.803 Y147.224 E14.47706
G1 X91.589 Y147.156 E14.49498
G1 X90.995 Y146.939 E14.54546
G1 X90.786 Y146.85 E14.56359
G1 X89.973 Y146.456 E14.63571
G1 X89.846 Y146.39 E14.64714
G1 X89.377 Y146.127 E14.69006
G1 X88.774 Y145.775 E14.74579
G1 X88.567 Y145.652 E14.76501
G1 X88.459 Y145.585 E14.77516
G1 X87.88 Y145.203 E14.83053
G1 X87.711 Y145.082 E14.84712
G1 X87.212 Y144.685 E14.89802
G1 X87.041 Y144.536 E14.91613
G1 X86.569 Y144.087 E14.96813
G1 X86.469 Y143.982 E14.9797
G1 X85.974 Y143.529 E15.03326
G1 X85.42 Y143.139 E15.08735
G1 X85.08 Y142.945 E15.11859
G1 X84.388 Y142.587 E15.18079
G1 X84.202 Y142.48 E15.19791
G1 X83.672 Y142.141 E15.24814
G1 X83.487 Y142.011 E15.26618
G1 X82.814 Y141.483 E15.33447
G1 X82.734 Y141.418 E15.34269
G1 X82.311 Y141.046 E15.38766
G1 X81.826 Y140.606 E15.43993
G1 X81.592 Y140.389 E15.46541
G1 X81.025 Y139.815 E15.52981
G1 X80.897 Y139.673 E15.54507
G1 X80.48 Y139.165 E15.59753
G1 X80.362 Y139.008 E15.61321
G1 X79.989 Y138.463 E15.66593
G1 X79.922 Y138.353 E15.67621
G1 X79.535 Y137.806 E15.7297
G1 X79.075 Y137.307 E15.78387
G1 X78.732 Y137.004 E15.82041
G1 X78.229 Y136.599 E15.87195
G1 X78.091 Y136.477 E15.88666
G1 X77.629 Y136.031 E15.93792
G1 X77.455 Y135.844 E15.95831
G1 X76.873 Y135.153 E16.03042
G1 X76.769 Y135.022 E16.04378
G1 X76.456 Y134.6 E16.08572
G1 X76.065 Y134.059 E16.139
G1 X75.85 Y133.749 E16.16911
G1 X75.465 Y133.148 E16.22609
G1 X75.343 Y132.935 E16.24568
G1 X75.065 Y132.396 E16.29409
G1 X74.969 Y132.19 E16.31223
G1 X74.733 Y131.616 E16.36177
G1 X74.684 Y131.479 E16.37339
G1 X74.418 Y130.864 E16.42688
G1 X74.074 Y130.279 E16.48105
G1 X73.801 Y129.913 E16.5175
G1 X73.39 Y129.408 E16.56947
G1 X73.269 Y129.245 E16.58568
G1 X72.922 Y128.729 E16.63531
G1 X72.788 Y128.506 E16.65608
G1 X72.362 Y127.707 E16.72836
G1 X72.291 Y127.564 E16.7411
G1 X72.075 Y127.093 E16.78246
G1 X71.812 Y126.498 E16.83439
G1 X71.706 Y126.249 E16.856
G1 X71.655 Y126.126 E16.86662
G1 X71.406 Y125.464 E16.92308
G1 X71.346 Y125.278 E16.93868
G1 X71.167 Y124.628 E16.9925
G1 X71.123 Y124.435 E17.0083
G1 X71.008 Y123.806 E17.05934
G1 X70.987 Y123.651 E17.07183
G1 X70.853 Y122.995 E17.12528
G1 X70.636 Y122.351 E17.17952
G1 X70.436 Y121.922 E17.21731
G1 X70.189 Y121.447 E17.26004
G1 X70.086 Y121.224 E17.27965
G1 X69.861 Y120.671 E17.32731
G1 X69.777 Y120.433 E17.34745
G1 X69.504 Y119.497 E17.42528
G1 X69.463 Y119.339 E17.43831
G1 X69.361 Y118.889 E17.47514
G1 X69.219 Y118.22 E17.52974
G1 X69.154 Y117.88 E17.55737
G1 X69.138 Y117.79 E17.56467
G1 X69.032 Y117.067 E17.623
G1 X69.012 Y116.878 E17.63817
G1 X68.974 Y116.234 E17.68966
G1 X68.972 Y116.029 E17.70603
G1 X68.993 Y115.358 E17.75962
G1 X69 Y115.264 E17.76714
G1 X69.008 Y114.595 E17.82055
G1 X68.931 Y113.92 E17.87478
G1 X68.83 Y113.47 E17.91159
G1 X68.656 Y112.824 E17.965
G1 X68.619 Y112.657 E17.97865
G1 X68.51 Y112.032 E18.02929
G1 X68.478 Y111.775 E18.04997
G1 X68.413 Y110.858 E18.12335
G1 X68.407 Y110.724 E18.13406
G1 X68.401 Y110.217 E18.17453
G1 X68.403 Y109.55 E18.22777
G1 X68.407 Y109.251 E18.25164
G1 X68.411 Y109.137 E18.26075
G1 X68.452 Y108.452 E18.31553
G1 X68.474 Y108.242 E18.33238
G1 X68.569 Y107.601 E18.38411
G1 X68.613 Y107.376 E18.40241
G1 X68.763 Y106.756 E18.45333
G1 X68.807 Y106.601 E18.46619
G1 X68.951 Y105.947 E18.51964
G1 X69.012 Y105.272 E18.57374
G1 X69.008 Y104.859 E18.60671
G1 X68.972 Y104.161 E18.66251
G1 X68.971 Y103.958 E18.67871
G1 X68.998 Y103.293 E18.73184
G1 X69.016 Y103.096 E18.74763
G1 X69.142 Y102.194 E18.82033
G1 X69.161 Y102.081 E18.82947
G1 X69.263 Y101.572 E18.87091
G1 X69.414 Y100.869 E18.92831
G1 X69.507 Y100.482 E18.96008
G1 X69.703 Y99.781 E19.01818
G1 X69.76 Y99.607 E19.0328
G1 X69.996 Y98.986 E19.08583
