;FLAVOR:Marlin
;TIME:3199
;Filament used: 3.00629m
;Layer height: 0.2
;MINX:75.199
;MINY:75.199
;MINZ:0.24
;MAXX:144.8
;MAXY:144.8
;MAXZ:5.59
;Generated with Cura_SteamEngine 4.8.0
M140 S70
M105
M190 S70
M104 S200
M105
M109 S200
M82 ;absolute extrusion mode
M201 X500.00 Y500.00 Z100.00 E5000.00 ;Setup machine max acceleration
M203 X500.00 Y500.00 Z10.00 E50.00 ;Setup machine max feedrate
M204 P500.00 R1000.00 T500.00 ;Setup Print/Retract/Travel acceleration
M205 X8.00 Y8.00 Z0.40 E5.00 ;Setup Jerk
M220 S100 ;Reset Feedrate
M221 S100 ;Reset Flowrate

G28 ;Home
G29 ;Auto level bed

G92 E0 ;Reset Extruder
G1 Z2.0 F3000 ;Move Z Axis up
G1 X10.1 Y20 Z0.28 F5000.0 ;Move to start position
G1 X10.1 Y200.0 Z0.28 F1500.0 E15 ;Draw the first line
G1 X10.4 Y200.0 Z0.28 F5000.0 ;Move to side a little
G1 X10.4 Y20 Z0.28 F1500.0 E30 ;Draw the second line
G92 E0 ;Reset Extruder
G1 Z2.0 F3000 ;Move Z Axis up
G92 E0
G92 E0
G1 F2700 E-5
;LAYER_COUNT:20
;LAYER:-6
M107
G0 F12000 X78.329 Y78.212 Z0.24
;TYPE:SUPPORT-INTERFACE
G1 F2700 E0
G1 F1800 X78.88 Y77.709 E0.05955
G1 X79.057 Y77.561 E0.07797
G1 X79.557 Y77.18 E0.12815
G1 X79.74 Y77.053 E0.14593
G1 X80.287 Y76.708 E0.19755
G1 X80.454 Y76.613 E0.21289
G1 X81.046 Y76.311 E0.26594
G1 X81.227 Y76.228 E0.28184
G1 X81.828 Y75.986 E0.33355
G1 X82.045 Y75.91 E0.35191
G1 X82.635 Y75.732 E0.4011
G1 X82.872 Y75.671 E0.42063
G1 X83.485 Y75.545 E0.47059
G1 X83.713 Y75.508 E0.48903
G1 X84.358 Y75.434 E0.54085
G1 X84.534 Y75.421 E0.55494
G1 X85.154 Y75.4 E0.60446
G1 X134.807 Y75.4 E4.56798
G1 X134.932 Y75.403 E4.57796
G1 X135.649 Y75.435 E4.63525
G1 X135.835 Y75.451 E4.65015
G1 X136.485 Y75.54 E4.70252
G1 X136.697 Y75.578 E4.71971
G1 X137.32 Y75.72 E4.77072
G1 X137.526 Y75.776 E4.78776
G1 X138.155 Y75.98 E4.84054
G1 X138.332 Y76.046 E4.85562
G1 X138.937 Y76.303 E4.90809
G1 X139.117 Y76.39 E4.92405
G1 X139.706 Y76.705 E4.97737
G1 X139.882 Y76.81 E4.99373
G1 X140.402 Y77.152 E5.04341
G1 X140.609 Y77.301 E5.06377
G1 X141.108 Y77.697 E5.11462
G1 X141.248 Y77.818 E5.12939
G1 X141.695 Y78.236 E5.17824
G1 X141.788 Y78.329 E5.18874
G1 X142.291 Y78.88 E5.2483
G1 X142.439 Y79.057 E5.26671
G1 X142.816 Y79.551 E5.31632
G1 X142.947 Y79.74 E5.33467
G1 X143.285 Y80.275 E5.38519
G1 X143.39 Y80.46 E5.40217
G1 X143.689 Y81.046 E5.45468
G1 X143.772 Y81.227 E5.47058
G1 X144.014 Y81.828 E5.5223
G1 X144.091 Y82.049 E5.54098
G1 X144.268 Y82.635 E5.58984
G1 X144.33 Y82.878 E5.60986
G1 X144.456 Y83.49 E5.65974
G1 X144.492 Y83.713 E5.67777
G1 X144.566 Y84.358 E5.72959
G1 X144.579 Y84.529 E5.74328
G1 X144.6 Y85.147 E5.79264
G1 X144.6 Y134.788 E9.7552
G1 X144.597 Y134.932 E9.7667
G1 X144.565 Y135.649 E9.82399
G1 X144.55 Y135.828 E9.83833
G1 X144.46 Y136.485 E9.89126
G1 X144.422 Y136.695 E9.9083
G1 X144.281 Y137.317 E9.95921
G1 X144.226 Y137.519 E9.97592
G1 X144.02 Y138.155 E10.02929
G1 X143.955 Y138.332 E10.04434
G1 X143.7 Y138.931 E10.0963
G1 X143.61 Y139.117 E10.1128
G1 X143.299 Y139.699 E10.16547
G1 X143.19 Y139.882 E10.18248
G1 X142.848 Y140.402 E10.23216
G1 X142.699 Y140.609 E10.25252
G1 X142.313 Y141.096 E10.30212
G1 X142.182 Y141.248 E10.31814
G1 X141.764 Y141.695 E10.36699
G1 X141.672 Y141.787 E10.37738
G1 X141.12 Y142.291 E10.43704
G1 X140.947 Y142.435 E10.45501
G1 X140.443 Y142.82 E10.50564
G1 X140.26 Y142.947 E10.52342
G1 X139.713 Y143.292 E10.57504
G1 X139.546 Y143.387 E10.59038
G1 X138.954 Y143.689 E10.64343
G1 X138.773 Y143.772 E10.65932
G1 X138.172 Y144.014 E10.71104
G1 X137.955 Y144.09 E10.72939
G1 X137.365 Y144.268 E10.77859
G1 X137.128 Y144.329 E10.79812
G1 X136.515 Y144.455 E10.84808
G1 X136.287 Y144.492 E10.86652
G1 X135.642 Y144.566 E10.91834
G1 X135.466 Y144.579 E10.93243
G1 X134.846 Y144.6 E10.98195
G1 X85.193 Y144.6 E14.94546
G1 X85.068 Y144.597 E14.95544
G1 X84.351 Y144.565 E15.01274
G1 X84.165 Y144.549 E15.02764
G1 X83.515 Y144.46 E15.08001
G1 X83.303 Y144.422 E15.0972
G1 X82.68 Y144.28 E15.14821
G1 X82.474 Y144.224 E15.16525
G1 X81.845 Y144.02 E15.21803
G1 X81.662 Y143.952 E15.23361
G1 X81.063 Y143.697 E15.28558
G1 X80.879 Y143.608 E15.3019
G1 X80.289 Y143.292 E15.35532
G1 X80.118 Y143.19 E15.37122
G1 X79.598 Y142.848 E15.4209
G1 X79.391 Y142.699 E15.44126
G1 X78.892 Y142.303 E15.49211
G1 X78.752 Y142.182 E15.50688
G1 X78.298 Y141.757 E15.55652
G1 X78.218 Y141.677 E15.56555
G1 X77.709 Y141.12 E15.62578
G1 X77.561 Y140.943 E15.6442
G1 X77.18 Y140.443 E15.69438
G1 X77.053 Y140.26 E15.71216
G1 X76.707 Y139.712 E15.76389
G1 X76.61 Y139.54 E15.77966
G1 X76.311 Y138.954 E15.83217
G1 X76.228 Y138.773 E15.84807
G1 X75.986 Y138.172 E15.89978
G1 X75.909 Y137.951 E15.91846
G1 X75.731 Y137.362 E15.96758
G1 X75.67 Y137.122 E15.98735
G1 X75.544 Y136.51 E16.03723
G1 X75.508 Y136.287 E16.05526
G1 X75.433 Y135.632 E16.10788
G1 X75.42 Y135.455 E16.12205
G1 X75.4 Y134.853 E16.17013
G1 X75.4 Y85.193 E20.13421
G1 X75.403 Y85.068 E20.14419
G1 X75.435 Y84.351 E20.20148
G1 X75.45 Y84.172 E20.21582
G1 X75.54 Y83.515 E20.26875
G1 X75.578 Y83.303 E20.28594
G1 X75.719 Y82.683 E20.3367
G1 X75.774 Y82.481 E20.35341
G1 X75.98 Y81.845 E20.40678
G1 X76.045 Y81.668 E20.42183
G1 X76.3 Y81.069 E20.47379
G1 X76.39 Y80.883 E20.49029
G1 X76.701 Y80.301 E20.54296
G1 X76.81 Y80.118 E20.55997
G1 X77.152 Y79.598 E20.60965
G1 X77.301 Y79.391 E20.63001
G1 X77.687 Y78.904 E20.67961
G1 X77.818 Y78.752 E20.69563
G1 X78.174 Y78.368 E20.73743
G1 X78.329 Y78.212 E20.75498
G0 F12000 X78.4 Y78.147
G1 F1800 X78.4 Y141.852 E25.84019
G1 F2700 E20.84019
G1 F300 Z0.74
G0 F12000 X80 Y143.112 Z0.74
G1 F300 Z0.24
G1 F2700 E25.84019
G1 F1800 X80 Y76.889 E31.1264
G1 F2700 E26.1264
G1 F300 Z0.74
G0 F12000 X81.6 Y76.077 Z0.74
G1 F300 Z0.24
G1 F2700 E31.1264
G1 F1800 X81.6 Y143.925 E36.54232
G1 F2700 E31.54232
G1 F300 Z0.74
G0 F12000 X83.2 Y144.398 Z0.74
G1 F300 Z0.24
G1 F2700 E36.54232
G1 F1800 X83.2 Y75.603 E42.03383
G1 F2700 E37.03383
G1 F300 Z0.74
G0 F12000 X84.8 Y75.411 Z0.74
G1 F300 Z0.24
G1 F2700 E42.03383
G1 F1800 X84.8 Y144.585 E47.5556
G1 F2700 E42.5556
G1 F300 Z0.74
G0 F12000 X86.4 Y144.6 Z0.74
G1 F300 Z0.24
G1 F2700 E47.5556
G1 F1800 X86.4 Y75.4 E53.07944
G1 F2700 E48.07944
G1 F300 Z0.74
G0 F12000 X88 Y75.4 Z0.74
G1 F300 Z0.24
G1 F2700 E53.07944
G1 F1800 X88 Y144.6 E58.60329
G1 F2700 E53.60329
G1 F300 Z0.74
G0 F12000 X89.6 Y144.6 Z0.74
G1 F300 Z0.24
G1 F2700 E58.60329
G1 F1800 X89.6 Y75.4 E64.12713
G1 F2700 E59.12713
G1 F300 Z0.74
G0 F12000 X91.2 Y75.4 Z0.74
G1 F300 Z0.24
G1 F2700 E64.12713
G1 F1800 X91.2 Y144.6 E69.65097
G1 F2700 E64.65097
G1 F300 Z0.74
G0 F12000 X92.8 Y144.6 Z0.74
G1 F300 Z0.24
G1 F2700 E69.65097
G1 F1800 X92.8 Y75.4 E75.17482
G1 F2700 E70.17482
G1 F300 Z0.74
G0 F12000 X94.4 Y75.4 Z0.74
G1 F300 Z0.24
G1 F2700 E75.17482
G1 F1800 X94.4 Y144.6 E80.69866
G1 F2700 E75.69866
G1 F300 Z0.74
G0 F12000 X96 Y144.6 Z0.74
G1 F300 Z0.24
G1 F2700 E80.69866
G1 F1800 X96 Y75.4 E86.2225
G1 F2700 E81.2225
G1 F300 Z0.74
G0 F12000 X97.6 Y75.4 Z0.74
G1 F300 Z0.24
G1 F2700 E86.2225
G1 F1800 X97.6 Y144.6 E91.74634
G1 F2700 E86.74634
G1 F300 Z0.74
G0 F12000 X99.2 Y144.6 Z0.74
G1 F300 Z0.24
G1 F2700 E91.74634
G1 F1800 X99.2 Y75.4 E97.27019
G1 F2700 E92.27019
G1 F300 Z0.74
G0 F12000 X100.8 Y75.4 Z0.74
G1 F300 Z0.24
G1 F2700 E97.27019
G1 F1800 X100.8 Y144.6 E102.79403
G1 F2700 E97.79403
G1 F300 Z0.74
G0 F12000 X102.4 Y144.6 Z0.74
G1 F300 Z0.24
G1 F2700 E102.79403
G1 F1800 X102.4 Y75.4 E108.31787
G1 F2700 E103.31787
G1 F300 Z0.74
G0 F12000 X104 Y75.4 Z0.74
G1 F300 Z0.24
G1 F2700 E108.31787
G1 F1800 X104 Y144.6 E113.84172
G1 F2700 E108.84172
G1 F300 Z0.74
G0 F12000 X105.6 Y144.6 Z0.74
G1 F300 Z0.24
G1 F2700 E113.84172
G1 F1800 X105.6 Y75.4 E119.36556
G1 F2700 E114.36556
G1 F300 Z0.74
G0 F12000 X107.2 Y75.4 Z0.74
G1 F300 Z0.24
G1 F2700 E119.36556
G1 F1800 X107.2 Y144.6 E124.8894
G1 F2700 E119.8894
G1 F300 Z0.74
G0 F12000 X108.8 Y144.6 Z0.74
G1 F300 Z0.24
G1 F2700 E124.8894
G1 F1800 X108.8 Y75.4 E130.41325
G1 F2700 E125.41325
G1 F300 Z0.74
G0 F12000 X110.4 Y75.4 Z0.74
G1 F300 Z0.24
G1 F2700 E130.41325
G1 F1800 X110.4 Y144.6 E135.93709
G1 F2700 E130.93709
G1 F300 Z0.74
G0 F12000 X112 Y144.6 Z0.74
G1 F300 Z0.24
G1 F2700 E135.93709
G1 F1800 X112 Y75.4 E141.46093
G1 F2700 E136.46093
G1 F300 Z0.74
G0 F12000 X113.6 Y75.4 Z0.74
G1 F300 Z0.24
G1 F2700 E141.46093
G1 F1800 X113.6 Y144.6 E146.98478
G1 F2700 E141.98478
G1 F300 Z0.74
G0 F12000 X115.2 Y144.6 Z0.74
G1 F300 Z0.24
G1 F2700 E146.98478
G1 F1800 X115.2 Y75.4 E152.50862
G1 F2700 E147.50862
G1 F300 Z0.74
G0 F12000 X116.8 Y75.4 Z0.74
G1 F300 Z0.24
G1 F2700 E152.50862
G1 F1800 X116.8 Y144.6 E158.03246
G1 F2700 E153.03246
G1 F300 Z0.74
G0 F12000 X118.4 Y144.6 Z0.74
G1 F300 Z0.24
G1 F2700 E158.03246
G1 F1800 X118.4 Y75.4 E163.55631
G1 F2700 E158.55631
G1 F300 Z0.74
G0 F12000 X120 Y75.4 Z0.74
G1 F300 Z0.24
G1 F2700 E163.55631
G1 F1800 X120 Y144.6 E169.08015
G1 F2700 E164.08015
G1 F300 Z0.74
G0 F12000 X121.6 Y144.6 Z0.74
G1 F300 Z0.24
G1 F2700 E169.08015
G1 F1800 X121.6 Y75.4 E174.60399
G1 F2700 E169.60399
G1 F300 Z0.74
G0 F12000 X123.2 Y75.4 Z0.74
G1 F300 Z0.24
G1 F2700 E174.60399
G1 F1800 X123.2 Y144.6 E180.12784
G1 F2700 E175.12784
G1 F300 Z0.74
G0 F12000 X124.8 Y144.6 Z0.74
G1 F300 Z0.24
G1 F2700 E180.12784
G1 F1800 X124.8 Y75.4 E185.65168
G1 F2700 E180.65168
G1 F300 Z0.74
G0 F12000 X126.4 Y75.4 Z0.74
G1 F300 Z0.24
G1 F2700 E185.65168
G1 F1800 X126.4 Y144.6 E191.17552
G1 F2700 E186.17552
G1 F300 Z0.74
G0 F12000 X128 Y144.6 Z0.74
G1 F300 Z0.24
G1 F2700 E191.17552
G1 F1800 X128 Y75.4 E196.69937
G1 F2700 E191.69937
G1 F300 Z0.74
G0 F12000 X129.6 Y75.4 Z0.74
G1 F300 Z0.24
G1 F2700 E196.69937
G1 F1800 X129.6 Y144.6 E202.22321
G1 F2700 E197.22321
G1 F300 Z0.74
G0 F12000 X131.2 Y144.6 Z0.74
G1 F300 Z0.24
G1 F2700 E202.22321
G1 F1800 X131.2 Y75.4 E207.74705
G1 F2700 E202.74705
G1 F300 Z0.74
G0 F12000 X132.8 Y75.4 Z0.74
G1 F300 Z0.24
G1 F2700 E207.74705
G1 F1800 X132.8 Y144.6 E213.2709
G1 F2700 E208.2709
G1 F300 Z0.74
G0 F12000 X134.4 Y144.6 Z0.74
G1 F300 Z0.24
G1 F2700 E213.2709
G1 F1800 X134.4 Y75.4 E218.79474
G1 F2700 E213.79474
G1 F300 Z0.74
G0 F12000 X136 Y75.474 Z0.74
G1 F300 Z0.24
G1 F2700 E218.79474
G1 F1800 X136 Y144.525 E224.30669
G1 F2700 E219.30669
G1 F300 Z0.74
G0 F12000 X137.6 Y144.198 Z0.74
G1 F300 Z0.24
G1 F2700 E224.30669
G1 F1800 X137.6 Y75.8 E229.76651
G1 F2700 E224.76651
G1 F300 Z0.74
G0 F12000 X139.2 Y76.435 Z0.74
G1 F300 Z0.24
G1 F2700 E229.76651
G1 F1800 X139.2 Y143.564 E235.12504
G1 F2700 E230.12504
G1 F300 Z0.74
G0 F12000 X140.8 Y142.548 Z0.74
G1 F300 Z0.24
G1 F2700 E235.12504
G1 F1800 X140.8 Y77.453 E240.3212
G1 F2700 E235.3212
G1 F300 Z0.74
G0 F12000 X142.4 Y79.011 Z0.74
G1 F300 Z0.24
G1 F2700 E240.3212
G1 F1800 X142.4 Y140.987 E245.2684
G1 F2700 E240.2684
G1 F300 Z0.74
G0 F12000 X144 Y138.21 Z0.74
G1 F300 Z0.24
G1 F2700 E245.2684
G1 F1800 X144 Y81.794 E249.77177
G1 F2700 E244.77177
G1 F300 Z0.74
G0 F12000 X76.8 Y80.134 Z0.74
G1 F300 Z0.24
G1 F2700 E249.77177
G1 F1800 X76.8 Y139.859 E254.53927
G0 F300 X76.8 Y139.859 Z0.54
G0 F12000 X76.228 Y138.771
;TIME_ELAPSED:137.089129
;LAYER:-5
M140 S65
;TYPE:SUPPORT
G1 F1800 X76.31 Y138.953 E254.55919
G1 X76.61 Y139.539 E254.62488
G1 X76.706 Y139.711 E254.64453
G1 X77.052 Y140.259 E254.7092
G1 X77.179 Y140.442 E254.73143
G1 X77.561 Y140.941 E254.79413
G1 X77.708 Y141.119 E254.81717
G1 X78.218 Y141.676 E254.89252
G1 X78.297 Y141.756 E254.90374
G1 X78.751 Y142.18 E254.96572
G1 X78.891 Y142.302 E254.98425
G1 X79.391 Y142.698 E255.0479
G1 X79.598 Y142.847 E255.07334
G1 X80.118 Y143.189 E255.13545
G1 X80.289 Y143.29 E255.15526
G1 X80.878 Y143.607 E255.222
G1 X81.063 Y143.696 E255.24249
G1 X81.662 Y143.951 E255.30745
G1 X81.763 Y143.988 E255.31818
G1 X76.011 Y138.237 E256.12978
G1 X75.985 Y138.171 E256.13686
G1 X75.908 Y137.95 E256.16021
G1 X75.731 Y137.361 E256.22158
G1 X75.669 Y137.121 E256.24631
G1 X75.543 Y136.509 E256.30866
G1 X75.513 Y136.324 E256.32736
G1 X83.668 Y144.479 E257.47812
G1 X84.165 Y144.548 E257.52818
G1 X84.351 Y144.564 E257.54681
G1 X85.067 Y144.596 E257.61832
G1 X85.192 Y144.599 E257.6308
G1 X85.202 Y144.599 E257.6318
G1 X75.4 Y134.797 E259.01497
G1 X75.4 Y133.382 E259.15615
G1 X86.617 Y144.599 E260.73899
G1 X88.031 Y144.599 E260.88008
G1 X75.4 Y131.968 E262.66245
G1 X75.4 Y130.554 E262.80354
G1 X89.445 Y144.599 E264.78545
G1 X90.859 Y144.599 E264.92653
G1 X75.4 Y129.14 E267.10797
G1 X75.4 Y127.726 E267.24906
G1 X92.273 Y144.599 E269.63002
G1 X93.688 Y144.599 E269.77121
G1 X75.4 Y126.311 E272.35184
G1 X75.4 Y124.897 E272.49293
G1 X95.102 Y144.599 E275.2731
G1 X96.516 Y144.599 E275.41419
G1 X75.4 Y123.483 E278.39388
G1 X75.4 Y122.069 E278.53497
G1 X97.93 Y144.599 E281.7142
G1 X99.344 Y144.599 E281.85529
G1 X75.4 Y120.655 E285.23404
G1 X75.4 Y119.24 E285.37523
G1 X100.759 Y144.599 E288.95366
G1 X102.173 Y144.599 E289.09475
G1 X75.4 Y117.826 E292.87271
G1 X75.4 Y116.412 E293.0138
G1 X103.587 Y144.599 E296.99129
G1 X105.001 Y144.599 E297.13238
G1 X75.4 Y114.998 E301.3094
G1 X75.4 Y113.583 E301.45059
G1 X106.416 Y144.599 E305.82728
G1 X107.83 Y144.599 E305.96837
G1 X75.4 Y112.169 E310.5446
G1 X75.4 Y110.755 E310.68569
G1 X109.244 Y144.599 E315.46144
G1 X110.658 Y144.599 E315.60253
G1 X75.4 Y109.341 E320.57781
G1 X75.4 Y107.927 E320.7189
G1 X112.072 Y144.599 E325.89372
G1 X113.487 Y144.599 E326.03491
G1 X75.4 Y106.512 E331.4094
G1 X75.4 Y105.098 E331.55048
G1 X114.901 Y144.599 E337.1245
G1 X116.315 Y144.599 E337.26559
G1 X75.4 Y103.684 E343.03914
G1 X75.4 Y102.27 E343.18023
G1 X117.729 Y144.599 E349.15331
G1 X119.143 Y144.599 E349.2944
G1 X75.4 Y100.856 E355.46701
G1 X75.4 Y99.441 E355.6082
G1 X120.558 Y144.599 E361.98048
G1 X121.972 Y144.599 E362.12157
G1 X75.4 Y98.027 E368.69338
G1 X75.4 Y96.613 E368.83447
G1 X123.386 Y144.599 E375.60581
G1 X124.8 Y144.599 E375.7469
G1 X75.4 Y95.199 E382.71778
G1 X75.4 Y93.784 E382.85897
G1 X126.215 Y144.599 E390.02951
G1 X127.629 Y144.599 E390.1706
G1 X75.4 Y92.37 E397.54068
G1 X75.4 Y90.956 E397.68177
G1 X129.043 Y144.599 E405.25137
G1 X130.457 Y144.599 E405.39246
G1 X75.4 Y89.542 E413.1616
G1 X75.4 Y88.128 E413.30269
G1 X131.871 Y144.599 E421.27136
G1 X133.286 Y144.599 E421.41255
G1 X75.4 Y86.713 E429.58089
G1 X75.4 Y85.299 E429.72198
G1 X134.7 Y144.599 E438.08985
G1 X134.845 Y144.599 E438.10432
G1 X135.466 Y144.577 E438.16632
G1 X135.641 Y144.565 E438.18382
G1 X136.034 Y144.519 E438.2233
G1 X75.477 Y83.963 E446.76848
G1 X75.539 Y83.514 E446.8137
G1 X75.577 Y83.302 E446.83519
G1 X75.698 Y82.769 E446.88973
G1 X137.23 Y144.301 E455.57256
G1 X137.364 Y144.267 E455.58636
G1 X137.954 Y144.089 E455.64785
G1 X138.172 Y144.012 E455.67092
G1 X138.303 Y143.959 E455.68502
G1 X76.035 Y81.692 E464.47163
G1 X76.044 Y81.667 E464.47428
G1 X76.299 Y81.068 E464.53924
G1 X76.389 Y80.882 E464.55986
G1 X76.476 Y80.719 E464.5783
G1 X139.278 Y143.521 E473.44034
G1 X139.546 Y143.385 E473.47032
G1 X139.712 Y143.29 E473.48941
G1 X140.172 Y143.001 E473.54361
G1 X76.998 Y79.827 E482.45815
G1 X77.151 Y79.596 E482.48579
G1 X77.3 Y79.389 E482.51124
G1 X77.599 Y79.013 E482.55918
G1 X140.986 Y142.4 E491.50377
G1 X141.119 Y142.29 E491.52099
G1 X141.671 Y141.786 E491.59557
G1 X141.728 Y141.728 E491.60369
G1 X78.27 Y78.27 E500.5583
G1 X78.328 Y78.212 E500.56648
G1 X78.879 Y77.708 E500.64099
G1 X79.012 Y77.598 E500.65821
G1 X142.399 Y140.985 E509.6028
G1 X142.698 Y140.609 E509.65074
G1 X142.846 Y140.401 E509.67621
G1 X142.999 Y140.171 E509.70377
G1 X79.826 Y76.998 E518.61816
G1 X80.286 Y76.708 E518.67242
G1 X80.453 Y76.613 E518.69159
G1 X80.72 Y76.477 E518.72149
G1 X143.522 Y139.28 E527.5836
G1 X143.609 Y139.116 E527.60213
G1 X143.699 Y138.93 E527.62275
G1 X143.954 Y138.332 E527.68761
G1 X143.964 Y138.307 E527.6903
G1 X81.696 Y76.039 E536.47699
G1 X81.827 Y75.986 E536.49109
G1 X82.044 Y75.91 E536.51403
G1 X82.634 Y75.731 E536.57555
G1 X82.768 Y75.697 E536.58934
G1 X144.3 Y137.229 E545.27217
G1 X144.42 Y136.695 E545.32678
G1 X144.459 Y136.485 E545.3481
G1 X144.521 Y136.036 E545.39332
G1 X83.964 Y75.479 E553.93857
G1 X84.357 Y75.434 E553.97804
G1 X84.533 Y75.421 E553.99565
G1 X85.153 Y75.399 E554.05755
G1 X85.298 Y75.399 E554.07202
G1 X144.599 Y134.7 E562.44003
G1 X144.599 Y133.286 E562.58112
G1 X86.713 Y75.399 E570.74953
